X: 19775
T: Jenny's Welcome To Charlie
R: reel
M: 4/4
K: Ddorian
|:e~a3 {b}age^f|~g2ag {b}gedg|e~a3{b}ag ed|ea{b}ag eddg|
(3agaea {b}age^f|~g2ag gedB|GA(3Bcd ecdc|1 AGcG EGGg:|2 AGcG EGGc||

